X: 100460
T: MASTER ERSKINE'S HORNPIPE
C: By NEIL GOW
B: K\"ohler's Violin Repository, v.3, 1885 p.288 #2
F: http://www.archive.org/details/klersviolinrepos03rugg
Z: 2011 John Chambers <jc:trillian.mit.edu>
M: C|
L: 1/8
K: C
uc |\
GcBc EcBc | (ec)(gc) (ac)(gc) | GcBc EcBc | e2d2 d4 |
(Gc)Bc EcBc | (ec)(gc) (ac)(gc) | GcBd cagf | e2c2 c2 :|
|: ue |\
(ga)gf (ef)ed | (cd)cB (AG)FE | (EG)cG (EF)GE | F2D2 D3f |
(ga)gf (ef)ed | (cd)cB (AG)FE | EGcG Fagf | e2c2 c3 :|

%%sep 2 1 500

